X: 38835
T: Summer Sent You
R: reel
M: 4/4
K: Dmajor
|:A|d2 dD FAAF|EDAD FAAF|D2 DA BddB|ABAF E2 Ad|
d2 dD FAAF|EDAD FA A2|dcdf edef|d3c d3:|
|:f|e3f gfef|d3e fdAf|g3e f2 af|eddB A2 Bc|
dDAD FAAF|EDAD FA A2|dAdf edef|d2 dc d3:|

